Adwaita++/mimetypes/16/audio-x-playlist.svg

<svg height="16" width="16" xmlns="http://www.w3.org/2000/svg">
  <g fill="#474747">
    <g stroke="#444" stroke-width=".352941">
      <path d="m.38409764 2.7255735v.7058823h5.64705796v-.7058823z"/>
      <path d="m.38409764 4.8432204v.7058823h5.64705796v-.7058823z"/>
      <path d="m.38409764 6.9608673v.7058817h3.52941096v-.7058817z"/>
    </g>
    <path d="m466 302v7.3438c-.4525-.21142-.9697-.34375-1.5-.34375-1.9212 0-3.5 1.5788-3.5 3.5s1.5788 3.5 3.5 3.5c1.9103 0 3.4823-1.5623 3.5-3.4688.0001-.0108 0-.0204 0-.0312v-7.5h6v4.3438c-.4525-.21147-.9697-.3438-1.5-.3438-1.9212 0-3.5 1.5788-3.5 3.5s1.5788 3.5 3.5 3.5c1.8995 0 3.4649-1.5457 3.5-3.4375.0004-.0216 0-.0408 0-.0625v-10.5z" transform="matrix(.8666564 0 0 .8666564 -396.5952 -259.33025)"/>
  </g>
</svg>

<?xml version="1.0" encoding="UTF-8" standalone="no"?>
<svg
   xmlns:dc="http://purl.org/dc/elements/1.1/"
   xmlns:cc="http://creativecommons.org/ns#"
   xmlns:rdf="http://www.w3.org/1999/02/22-rdf-syntax-ns#"
   xmlns:svg="http://www.w3.org/2000/svg"
   xmlns="http://www.w3.org/2000/svg"
   xmlns:sodipodi="http://sodipodi.sourceforge.net/DTD/sodipodi-0.dtd"
   xmlns:inkscape="http://www.inkscape.org/namespaces/inkscape"
   width="16"
   height="16"
   version="1.1"
   id="svg12"
   sodipodi:docname="audio-x-playlist.svg"
   inkscape:version="0.92.4 (5da689c313, 2019-01-14)">
  <metadata
     id="metadata18">
    <rdf:RDF>
      <cc:Work
         rdf:about="">
        <dc:format>image/svg+xml</dc:format>
        <dc:type
           rdf:resource="http://purl.org/dc/dcmitype/StillImage" />
      </cc:Work>
    </rdf:RDF>
  </metadata>
  <defs
     id="defs16" />
  <sodipodi:namedview
     pagecolor="#ffffff"
     bordercolor="#666666"
     borderopacity="1"
     objecttolerance="10"
     gridtolerance="10"
     guidetolerance="10"
     inkscape:pageopacity="0"
     inkscape:pageshadow="2"
     inkscape:window-width="1920"
     inkscape:window-height="1016"
     id="namedview14"
     showgrid="false"
     inkscape:zoom="14.75"
     inkscape:cx="8"
     inkscape:cy="8"
     inkscape:window-x="0"
     inkscape:window-y="27"
     inkscape:window-maximized="1"
     inkscape:current-layer="svg12" />
  <path
     style="fill:#474747;stroke:#444444;stroke-width:0.35294116;stroke-miterlimit:4;stroke-dasharray:none;stroke-opacity:1"
     d="M 0.38409764,2.7255735 V 3.4314558 H 6.0311556 V 2.7255735 Z"
     id="path6"
     inkscape:connector-curvature="0" />
  <path
     style="fill:#474747;stroke:#444444;stroke-width:0.35294116;stroke-miterlimit:4;stroke-dasharray:none;stroke-opacity:1"
     d="M 0.38409764,4.8432204 V 5.5491027 H 6.0311556 V 4.8432204 Z"
     id="path8"
     inkscape:connector-curvature="0" />
  <path
     style="fill:#474747;stroke:#444444;stroke-width:0.35294116;stroke-miterlimit:4;stroke-dasharray:none;stroke-opacity:1"
     d="M 0.38409764,6.9608673 V 7.666749 H 3.9135086 V 6.9608673 Z"
     id="path10"
     inkscape:connector-curvature="0" />
  <g
     id="layer14"
     transform="matrix(0.8666564,0,0,0.8666564,-396.5952,-259.33025)">
    <path
       inkscape:connector-curvature="0"
       d="m 466,302 v 7.3438 c -0.4525,-0.21142 -0.9697,-0.34375 -1.5,-0.34375 -1.9212,0 -3.5,1.5788 -3.5,3.5 0,1.9212 1.5788,3.5 3.5,3.5 1.9103,0 3.4823,-1.5623 3.5,-3.4688 10e-5,-0.0108 0,-0.0204 0,-0.0312 v -7.5 h 6 v 4.3438 c -0.4525,-0.21147 -0.9697,-0.3438 -1.5,-0.3438 -1.9212,0 -3.5,1.5788 -3.5,3.5 0,1.9212 1.5788,3.5 3.5,3.5 1.8995,0 3.4649,-1.5457 3.5,-3.4375 4e-4,-0.0216 0,-0.0408 0,-0.0625 v -10.5 z"
       style="fill:#474747"
       id="path3" />
  </g>
</svg>
